X:1
T:Aestimatus sum - Victoria
T:James Gibb editions
T:#
%%score { 1 | 2 } 3 4
L:1/8
Q:1/4=200
M:none
K:F
V:1 treble nm="Soprano I" snm="S"
V:2 treble 
V:3 treble nm="Alto" snm="A"
V:4 treble-8 nm="Tenor" snm="T"
V:1
"^Tomas Luis deVictoria\n(1548-1611)" d16 |"^Aestimatus sum" d8 B8- | B8 c8 | d8 z4 d4 | %4
w: Ae-|sti- ma\-|* tus|sum cum|
 d4 d4 f6 e2 | d4 c4 B8 | A8 z4 d4 | d4 d4 c4 B4 | A4 G4 (^F4 G4- | G4 ^F2 E2 F8) | G16 || %11
w: des- scen- den- ti-|bus in la-|cum, cum|de- scen- den- ti-|bus in la\- *||cum:|
S B12 B4 | B8 A4 F4 | G16 | A8 z4 d4- | d4 c4 d4 A4 | c4 B4 A4 A4 | F4 B8 B4 | (A4 G2 F2 G4) (d4- | %19
w: Fa- ctus|sum si- cut|ho-|mo si\-|* ne ad- ju-|to- ri- o, in-|ter mor- tu-|os * * * li\-|
 d4 c4 d8) | d16!fine! |]"^Trio" x16 | x16 | x16 | x16 | x16 | x16 | x16 | x16 | x16 | x16 | x16 | %32
w: |ber.||||||||||||
 x16"^al fine" |] %33
w: |
V:2
 B16 | A8 (G6 A2 | B12) A4 | B4 d4 d4 d4 | f6 e2 d4 c4 | (B4 A6 G2 G4- | G4 ^F2 E2 F8) | G8 z8 | %8
w: Ae-|sti- ma\- *|* tus|sum cum de- scen-|den- ti- bus in|la\- * * *||cum,|
 z4 G4 (A4 =B4 | c16) | =B16 || z8 d8 | d4 d4 (d8 | c4) B4 c8 | d16 | z16 | z4 B4 c8 | d12 d4 | %18
w: in la\- *||cum:|Fa-|ctus sum si\-|* cut ho-|mo||in- ter|mor- tu-|
 c4 (B8 A2 G2 | F4 G4 A8) | =B16 |] z8[I:staff -1] d8- | d4 A4 c8 | B8 A4 d4 | c4 A4 c4 c4- | %25
w: os li\- * *||ber.|Po\-|* su- e-|runt me in|la- cu in- fe\-|
 c4 B4 (A4 G4- | G4 ^F4) G4 B4 | B4 c4 d8 | B8[I:staff +1] z4[I:staff -1] A4- | A4 A4 B8- | %30
w: * ri- o\- *|* * ri, in|te- ne- bro-|sis, et|* in um\-|
 B4 B4 (A4 G4- | G4 ^F2 E2 F8) | G16 |] %33
w: * bra mor\- *||tis.|
V:3
 G16 | F8 G8- | G8 _E8 | F16 | z16 | z16 | z4 A4 A4 A4 | B6 A2 G4 F4 | _E4 D4 z4 D4 | C16 | D16 || %11
w: Ae-|sti- ma\-|* tus|sum|||cum de- scen-|den- ti- bus in|la- cum, in|la-|cum:|
 G12 G4 | G8 F4 D4 | _E16 | D8 z8 | z16 | z4 G4 E4 F4- | F4 F4 F8 | z4 (D6 E2 F2 G2 | A4 G8 ^F4) | %20
w: Fa- ctus|sum si- cut|ho-|mo||in- ter mor\-|* tu- os|li\- * * *||
 G16 |] G12 D4 | F8 _E8 | D4 G4 F4 D4 | F4 F8 _E4 | D8 C6 B,2 | A,8 G,8 | z8 z4 D4 | D4 E4 F8 | %29
w: ber.|Po- su-|e- runt|me in la- cu|in- fe- ri-|o\- * *|* ri,|in|te- ne- bro-|
 D8 z4 G4- | G4 F4 _E4 D4 | (_E2 D2 C2 B,2 C8) | D16 |] %33
w: sis, et|* in um- bra|mor\- * * * *|tis.|
V:4
 G16 | d8 _e8- | e8 c8 | B16- | B16 | z16 | d8 d4 d4 | g6 f2 _e4 d4 | (c4 B4 A4 G4 | A16) | G16 || %11
w: Ae-|sti- ma\-|* tus|sum|||cum de- scen-|den- ti- bus in|la\- * * *||cum:|
 z16 | z16 | z8 z4 g4- | g4 ^f4 g4 d4 | f4 _e4 d8 | z4 G4 A8 | B12 B4 | F4 (G2 A2 B2 c2 d4- | %19
w: ||si\-|* ne ad- ju-|to- ri- o,|in- ter|mor- tu-|os li\- * * * *|
 d4 _e4 d8) | G16 |] z16 | z16 | z16 | z16 | z16 | z8 z4 G4 | G4 A4 B8 | G8 z4 d4 | f8 (g6 f2 | %30
w: |ber.||||||in|te- ne- bro-|sis, et|in um\- *|
 _e4 d4 c4) =B4 | (c2 B2 A2 G2 A8) | G16 |] %33
w: * * * bra|mor\- * * * *|tis.|

